X:1
T:Exsultate Deo
T:Exsultate Deo
T:Exsultate Deo
T:Alessandro Scarlatti (1660-1725)
T:Arrangement by Felix Scharpf
T:arr. for Flute, Violin, Viola and Cello
T:twoflutes 2019/ https://commons.wikimedia.org/wiki/File:Alessandro_Scarlatti_2.jpg
T:twoflutes 2019/ https://commons.wikimedia.org/wiki/File:Alessandro_Scarlatti_2.jpg
T:twoflutes 2019/ https://commons.wikimedia.org/wiki/File:Alessandro_Scarlatti_2.jpg
T:twoflutes 2019/ https://commons.wikimedia.org/wiki/File:Alessandro_Scarlatti_2.jpg
T:twoflutes 2019/ https://commons.wikimedia.org/wiki/File:Alessandro_Scarlatti_2.jpg
C:Alessandro Scarlatti (1660-1725)
Z:twoflutes 2019/ https://commons.wikimedia.org/wiki/File:Alessandro_Scarlatti_2.jpg
%%score [ 1 2 3 4 ]
L:1/8
Q:1/2=120
M:2/2
K:Eb
V:1 treble nm="Flöte" snm="Fl."
V:2 treble nm="Violine" snm="Vl."
V:3 alto nm="Bratsche" snm="Bra."
V:4 bass nm="Violoncello" snm="Vc."
V:1
!mf!"^Vivace" B2 B2 e4- | e2 (d2 e2 fe) | (d4 B4) | z8 | z4 B2 B2 | (e6 d2 | e2 B2 e2 f2 | %7
 g3 f g2 d2 | e2 B2) e2 g2 | f2 (e2 d2) e2 | (e2 d2) (g4 | f4) e2 e2 | (e4 d4) | (c2 B4 =A2 | %14
 B4) z4 |!f! B2 B2 (e4- | e2 d2 e3 d | c2 e2 d3 c | =B2 d2) c2 B2 | (c2 G2 c2 d2 | e3 d e2 d2 | %21
 e2 g2) f2 e2 | d2 (c2 =B2) c2 | c2 =B2 (e4 | d4 e4) | f2 z2!mf! f2 f2 | (g4 f4) | B2 B2 B4 | %28
 (c4 B4) | B2 e4 d2 | d2 d2 (e4- | e4 d4 | c4 B4- | B2 =A2 d4 | c8 | d8) ||S z2 (.f2 .f2 .f2) | %37
 (d3 c B4) | z2 (.e2 .e2 .e2) | (c3 d e4) | c2 c4 =B2 | c2 (.g2 .g2 .g2) | c6 (.c2 | %43
 .c2 .c2) (=A2 GF | B6) e2 | (e6 f2) | d2 e4 d2 | (e2 dc d2 c2- | c2 B4 =A2 | B2) (.f2 .f2 .f2) | %50
 (d3 e f4) | z2 (.f2 .f2 .f2) | (gfed c2) (.e2 | .e2 .e2) (c3 d | e6 dc | B2) c2 B3 B | %56
 B4 z2!f! e2 | e2 f2 g2 c2 | B6 B2 | B2[Q:1/2=64]"^rit." (e4 d2) | (e4 f3) (f[Q:1/2=54] | %61
 !fermata!g8)!fine! ||[M:3/2] z2 ||[Q:1/2=120] z4!mp! (.g2 .g2 .g2 .g2) | g4 e4 (.g2 .g2) | %65
 g4 (f2 e2) d4 | e4 (.g2 .g2 .f2 .f2 | .g2 .g2) g4 f4 | g4 (.g2 .g2 .f2 .f2 | .e2 .e2) c4 e4 | %70
 (.c2 .c2 .e2 .f2 .g2 .g2 | .e2 .e2) e4 e4 | (.e2 .e2 .g2 .g2 .g2 .g2) | (f2 d2 g8) | f4 f4 g4 | %75
 (f2 e2 d4 f4 | e4 d4 c2 d2 | B6 c2 F2 d2 | e4 c8 | d4)!f! d4 =e4 | f12 | f4 f4 d4 | %82
[Q:1/2=70]"^poco rit." (c12[Q:1/2=64] | d12)!D.S.! |] %84
V:2
 z4!mf! E2 E2 | (B3 A G2 A2) | B2 F2 G4- | G2 (F2 B2 AG | F4 E4) | E2 E2 B4 | B4 B2 B2 | B8- | %8
 B2 B2 A2 G2 | A2 (B2 A2) B2 | B8 | B4 G2 G2 | F6 B2 | G4 F4 |!f! F2 F2 (B3 A | G2 F2) B4- | %16
 B4 B4 | A8 | G8- | G4 G2 =B2 | (c3 =B c3 B | c2 G2 c2 B2) | A2 G2 F2 G2 | G8 | G4 G2 G2 | %25
 c2 c2 B4 | B2 z2!mf! A2 A2 | A6 G2 | (A3 G F4) | G2 B4 B2 | B4 G4 | c2 c2 B4 | G8 | F8- | F8 | %35
 F8 || z8 | z2 (.F2 .F2 .F2) | G3 A B4 | z2 (.A2 .A2 .A2) | G2 A2 G3 G | G4 G4 | G4 F4 | =A6 D2 | %44
 F4 E4 | G4 A4 | (B2 AG F4 | G2 FE D2 G2 | F4) F2 (.F2 | .F2 .F2) (D3 E | F2) (.F2 .F2 .F2) | %51
 D3 E F4 | B2 B2 A4 | A6 A2 | A2 A2 A4 | G2 A2 F4 | G2!f! (.B2 .B2 .B2) | (B6 AG | F2) G2 F3 F | %59
 G2 B2 c2 B2 | B2 (AG) c2 B2 | !fermata!B8 ||[M:3/2] z2 ||!mp! G2 G2 c4 =B4 | c2 c2 c2 G2 c2 c2 | %65
 (c6 B2) A4 | B12 | B12 | B4 B4 B4 | G4 A4 B2 B2 | A2 A2 A2 A2 B2 B2 | c2 c2 c8 | B4 B2 B2 B2 B2 | %73
 B4 B4 B4 | B4 B4 B4 | (B6 F2 B2 =A2 | B6 =A2 G2 B2 | G2 =A2 B2 F2 B2 A2 | B8 =A4) | B4!f! F4 B4 | %80
 =A2 (G2 F2 A2 B2 F2 | =A2 B2 c4) F4 | F12 | F12 |] %84
V:3
 z8 | z8 |!mf! B,2 B,2 E4- | E2 (D2 E2 FE) | D4 E4 | z4 F2 F2 | (G3 F G2 D2 | E3 D E2 F2 | %8
 G3) F E2 D2 | C2 B,2 F2 G2 | F6 E2 | D4 C4- | C2 F4 F2 | E2 E2 C4 | D4!f! B,2 B,2 | E2 D2 G4 | %16
 F4 (G3 F | E2 C2 F3 E | D2 =B,2) C2 D2 | (E3 D E2) G2 | G4 G4 | (GFED C2) E2 | F2 C2 F2 E2 | %23
 D6 C2 | =B,4 C2 E2 | (E2 DC D4 | E2) z2!mf! C2 C2 | F4 E4 | (E6 D2) | E2 G2 E4 | G2 G4 G2 | %31
 F6 F2 | (E6 D2 | C4 B,4- | B,4 =A,4 | B,8) || z4 z2 (.F2 | .F2 .F2) (D3 C) | B,4 z2 (.E2 | %39
 .E2 .E2) C3 D | E2 F2 D3 D | =E6 E2 | =E2 E2 C4- | C2 (.F2 .F2 .F2) | (D3 C B,4) | z2 G2 G2 F2 | %46
 G4 C2 DC | (B,2 F4 ED | C2 D2 C4) | D4 z2 (.F2 | .F2 .F2) (D3 E) | (FEDC D4) | z2 (.E2 .E2 .E2) | %53
 (C3 D E4- | E2 C2) E2 F2 | G2 E4 D2 | E2!f! (.G2 .G2 .G2) | G2 F2 (E2 FE | D2 E4 D2) | %59
 E2 G2 F3 F | G2 E2 E2 (D2 | !fermata!E8) ||[M:3/2] z2 ||!mp! E2 E2 E4 D4 | E2 E2 G2 G2 E2 E2 | %65
 (E2 D2 C2 E2 F4) | G4 E4 B,4 | z4 E2 E2 D2 D2 | E4 G,4 B,4 | C4 E2 E2 E2 E2 | E2 E2 C4 E4 | %71
 z4 C2 C2 E2 E2 | G2 G2 E2- E6 | D2 F2 E2 B,2 E4 | D4 D4 E4 | (D6 C2 B,2 C2 | B,2 C2 D4 E2 F2 | %77
 G6 FE D2 F2 | B,2 G2 F8) | F4 z8 | z4!f! F4 D4 | C2 (B,2 =A,4 B,4- | B,4 =A,2 G,2 A,4 | B,12) |] %84
V:4
 z8 | z8 | z4!mf! E,2 E,2 | (B,3 A, G,2 A,2) | B,2 F,2 G,4 | (C4 B,2) B,2 | (E3 D E2 B,2 | %7
 E,2 B,2 E,2 B,2) | (E3 D C2 B,2) | A,2 G,2 F,2 E,2 | B,4 E,4 | B,2 B,2 (C3 B, | =A,4) B,4 | %13
 E,4 F,4 | B,,4 z4 | z4!f! E,2 E,2 | (B,3 A, G,2 E,2) | (A,3 G, F,2) D,2 | (G,3 F, E,2) G,2 | %19
 (C3 =B, C2) G,2 | C2 G,2 C,2 G,2 | (C3 B, A,2 G,2) | F,2 E,2 D,2 C,2 | G,4 C,4 | G,2 G,2 C3 B, | %25
 (=A,4 B,4) |!mf! E,2 E,2 (F,3 E, | D,4 E,4) | (A,4 B,4) | E,4 B,4- | B,2 B,2 (C3 B,) | =A,4 B,4 | %32
 E,8 | F,8- | F,8 | B,,8 || B,8 | B,4 B,4 | E,8 | A,4 A,3 B, | C2 F,2 G,2 G,2 | C,4 C4 | %42
 C4 =A,3 G, | F,6 B,2 | B,4 G,3 F, | E,2 E2 C2 D2 | B,2 C2 =A,2 B,2 | G,2 =A,2 B,2 E,2 | %48
 F,2 B,,2 F,3 F, | B,,4 B,4 | B,4 B,4 | B,6 A,2 | G,4 A,4 | A,4 A,4 | C6 D2 | E2 A,2 B,3 B, | %56
 E,2!f! (.E2 .E2 .E2) | E2 D2 E2 A,2 | B,2 E,2 B,3 B, | E,2 E2 A,2 B,2 | (EDCB, A,2 B,2) | %61
 !fermata!E,8 ||[M:3/2] z2 ||!mp! C2 C2 C4 G,4 | C2 C2 C2 C,2 C2 C2 | (C2 B,2 A,2 G,2 F,4) | %66
 E,4 E2 E2 D2 D2 | E4 G,4 B,4 | E,4 E2 E2 D2 D2 | E4 A,4 G,2 G,2 | A,2 A,2 A,2 A,2 G,2 E,2 | %71
 A,2 A,2 A,2 A,2 A,2 C2 | E2 E,2 E,2 E,2 G,2 E,2 | B,4 G,4 E,4 | B,4 B,4 E,4 | %75
 (B,2 C2 B,2 =A,2 G,2 F,2 | G,6 F,2 E,2 D,2 | E,2 F,2 G,2 =A,2 B,2 F,2 | G,2 E,2 F,8 | %79
 B,4)!f! B,4 G,4 | (F,2 E,2 D,2 C,2 B,,2 D,2 | F,12) | (F,12 | B,,12) |] %84

